src/images/platforms/openocean.svg

<svg width="31" height="28" viewBox="0 0 31 28" fill="none" xmlns="http://www.w3.org/2000/svg">
<path fill-rule="evenodd" clip-rule="evenodd" d="M24.2726 14.5942C24.2732 14.5782 24.2737 14.5622 24.2745 14.5463C24.2767 14.5036 24.2791 14.461 24.2815 14.4183C24.2894 14.2796 24.2974 14.1408 24.2974 14C24.2974 13.932 24.2953 13.8644 24.2933 13.7968C24.2925 13.7721 24.2918 13.7475 24.2911 13.7228C24.2909 13.7145 24.2907 13.7062 24.2905 13.6979C24.2901 13.6814 24.2897 13.6648 24.289 13.6482C24.2745 13.5597 24.2203 13.4848 24.1412 13.4498C24.1359 13.4475 24.1302 13.4465 24.1245 13.4454C24.1205 13.4447 24.1166 13.4439 24.1127 13.4428C23.8083 13.371 23.5014 13.2874 23.1922 13.1841L23.0589 13.1386C20.1668 12.1275 17.3958 12.5951 16.1143 12.9195C16.039 12.9381 15.9689 12.9566 15.9043 12.9745C15.9008 12.9747 15.8975 12.9752 15.8941 12.9757C15.8902 12.9763 15.8862 12.9769 15.8821 12.9769C15.6304 12.9769 15.4201 12.7963 15.3722 12.5566V12.3469V10.1654V9.95574C15.4034 9.79789 15.5065 9.66804 15.6447 9.59594C15.6787 9.58194 15.7137 9.56829 15.755 9.55289C16.6145 9.23649 18.9446 8.66319 22.8728 9.67224C22.8802 9.67573 22.8881 9.67718 22.8959 9.67862C22.9006 9.6795 22.9054 9.68037 22.91 9.68169C22.9146 9.68293 22.9192 9.68426 22.9238 9.68559C22.9412 9.69064 22.9587 9.69569 22.9777 9.69569C23.1217 9.69569 23.238 9.57809 23.238 9.43319C23.238 9.41542 23.2336 9.39946 23.2292 9.38348C23.2278 9.37838 23.2264 9.37327 23.2251 9.36809C23.2165 9.33449 23.2022 9.30474 23.1825 9.27779C21.4674 5.85164 17.9498 3.49999 13.8841 3.49999C8.13326 3.49999 3.47092 8.20084 3.47092 14C3.47092 19.7991 8.13326 24.5 13.8841 24.5C18.0355 24.5 21.6135 22.0475 23.2859 18.5038L23.2948 18.4852C23.313 18.4474 23.3311 18.4097 23.3487 18.3715C23.3497 18.3659 23.3512 18.3604 23.3526 18.3549C23.3552 18.3452 23.3577 18.3354 23.3577 18.3246C23.3577 18.2203 23.2963 18.1317 23.2088 18.0894C23.2052 18.0882 23.2014 18.0871 23.1977 18.0859L23.1922 18.0841L23.1724 18.0775L23.0589 18.0386C20.08 16.997 17.2282 17.5245 16.0018 17.8482C15.9973 17.8492 15.9933 17.8503 15.989 17.8515C15.989 17.8515 15.9852 17.8526 15.9831 17.8531C15.9508 17.8598 15.9168 17.8636 15.8821 17.8636C15.6304 17.8636 15.4201 17.683 15.3722 17.4433V17.2336V15.0699V14.8599C15.4059 14.6912 15.5204 14.5526 15.6731 14.4847C15.6767 14.4829 15.6807 14.4816 15.6847 14.4802C15.6876 14.4792 15.6905 14.4782 15.6933 14.477C16.5079 14.1624 18.9096 13.5131 23.0589 14.6184C23.3525 14.6968 23.634 14.7633 23.9103 14.8246C23.9509 14.8337 23.9916 14.8428 24.0318 14.8512C24.1478 14.8473 24.2404 14.7668 24.2699 14.658C24.2711 14.637 24.2719 14.6156 24.2726 14.5942ZM30.0989 9.96694C30.1323 9.96029 30.1666 9.95679 30.2013 9.95679C30.486 9.95679 30.7164 10.186 30.7227 10.4709V10.4958V12.7134V12.8082C30.7057 12.9962 30.5925 13.1551 30.4315 13.2338C30.3829 13.2485 30.3294 13.2643 30.2694 13.2814C29.8112 13.4116 29.0298 13.5961 28.051 13.6913L27.9542 13.6997C27.8518 13.7291 27.7768 13.8169 27.7678 13.9268C27.7678 13.9344 27.7678 13.9417 27.7679 13.9491C27.768 13.9564 27.7681 13.9638 27.7681 13.9713C27.7681 13.9762 27.7682 13.9811 27.7683 13.9859C27.7684 13.9906 27.7684 13.9953 27.7684 14C27.7684 14.3188 27.7546 14.6338 27.7341 14.9471C27.734 14.9499 27.7338 14.9528 27.7336 14.9556C27.7333 14.9605 27.7329 14.9653 27.7327 14.9702C27.7369 15.1042 27.8396 15.2099 27.9708 15.2208L27.9744 15.2206C27.9906 15.22 28.0074 15.2193 28.0236 15.2183C28.9049 15.169 29.5644 15.0279 30.0104 14.8942C30.042 14.8848 30.0753 14.875 30.1045 14.8659C30.1371 14.8599 30.1704 14.8557 30.2051 14.8557C30.4651 14.8557 30.6796 15.0461 30.7227 15.2957V15.4787V17.6263V17.6904C30.7109 17.8902 30.5897 18.0596 30.4179 18.138L30.403 18.1425C30.3661 18.1534 30.3274 18.1649 30.2843 18.1772C29.7015 18.3438 28.5762 18.6035 27.1777 18.6448C27.1715 18.645 27.1654 18.6453 27.1593 18.6456C27.1535 18.6458 27.1477 18.6461 27.1419 18.6462C27.0506 18.6539 26.9746 18.7075 26.9344 18.7848C26.927 18.7993 26.9222 18.8144 26.9173 18.8301L26.9166 18.8321C24.9649 24.1825 19.8679 28 13.8842 28C5.87985 28 -0.542675 21.1701 0.0363005 12.9745C0.523986 6.06899 6.07458 0.49664 12.9251 0.0325395C19.6777 -0.42491 25.4824 3.99069 27.2301 10.1353C27.2339 10.1538 27.2374 10.172 27.2454 10.1888C27.2846 10.2707 27.3637 10.3267 27.4585 10.3348C27.4727 10.3344 27.4866 10.3344 27.5005 10.3341C28.6362 10.3218 29.4658 10.1559 29.9969 9.99879C30.033 9.98794 30.066 9.97744 30.0989 9.96694Z" fill="white"/>
</svg>

<svg xmlns="http://www.w3.org/2000/svg" width="31" height="28" fill="none"><path fill="#fff" fill-rule="evenodd" d="M24.273 14.594q0-.024.002-.048l.007-.128c.007-.138.015-.277.015-.418q0-.102-.004-.203l-.002-.074v-.025l-.002-.05a.26.26 0 0 0-.148-.198l-.016-.005-.012-.002a11 11 0 0 1-.92-.259l-.134-.045c-2.892-1.011-5.663-.544-6.945-.22l-.21.056h-.01l-.012.002a.52.52 0 0 1-.51-.42V9.955a.52.52 0 0 1 .383-.402c.86-.317 3.19-.89 7.118.12q.01.004.023.006.008 0 .014.003.008 0 .014.004.026.009.054.01c.144 0 .26-.118.26-.263q0-.027-.009-.05l-.004-.015a.3.3 0 0 0-.043-.09C21.468 5.852 17.95 3.5 13.885 3.5 8.134 3.5 3.471 8.2 3.471 14s4.662 10.5 10.413 10.5c4.151 0 7.73-2.453 9.402-5.996l.009-.019.054-.113q0-.01.004-.017a.1.1 0 0 0 .005-.03.26.26 0 0 0-.15-.236l-.01-.003-.006-.002-.02-.006-.113-.04c-2.979-1.041-5.83-.514-7.057-.19l-.013.004-.006.001a.522.522 0 0 1-.61-.41V14.86a.52.52 0 0 1 .3-.375l.012-.005.008-.003c.815-.315 3.217-.964 7.366.141a20 20 0 0 0 .973.233.26.26 0 0 0 .238-.193zm5.826-4.627a.523.523 0 0 1 .624.504v2.337a.53.53 0 0 1-.291.426l-.163.047c-.458.13-1.24.315-2.218.41l-.097.009a.26.26 0 0 0-.186.271V14a15 15 0 0 1-.034.956l-.001.014c.004.134.107.24.238.25h.003q.025 0 .05-.002c.88-.049 1.54-.19 1.986-.324l.095-.028a.527.527 0 0 1 .618.43v2.394a.53.53 0 0 1-.305.448l-.015.004-.119.035a13 13 0 0 1-3.125.469h-.017a.26.26 0 0 0-.225.184v.002C24.965 24.182 19.867 28 13.884 28 5.88 28-.543 21.17.036 12.975.524 6.069 6.075.497 12.926.033 19.677-.425 25.481 3.99 27.23 10.135q.005.029.015.054c.04.082.119.138.213.146h.043c1.135-.013 1.965-.18 2.496-.336z" clip-rule="evenodd"/></svg>
